X:1
T:Panic Is On
M:2/2
L:1/8
K:C
 C2 E2 G2 AG| c A2 c- c4| zd-d c d2 c2| _B8| ec dc e d3| c A2 B- B3 c|\
 C2 E2 G2 BA|B-A B A- A4| D4 A4| z GA GA G A2| C8|
